X:1
T: Farmer's Jamboree
C:
R:Jig
Q:180
K:A
M:6/8
L:1/16
cd|e2f2e2 d2c2B2|A4c2 E4c2|c2^B2c2 e2d2c2|B6 B2c2d2|e2f2e2 d2c2B2|A4c2 E2e2f2|g2f2e2 d2c2B2|A6-A4cd|
e2f2e2 d2c2B2|A4c2 E4c2|c2^B2c2 e2d2c2|B6 B2c2d2|e2f2e2 d2c2B2|A4c2 E2e2f2|g2f2e2 d2c2B2|A6-A4cd|
e4c2 a4g2|f4d2 b4a2|g4B2 B2d2f2|e6 e2c2d2|e4c2 a4g2|f4d2 b4a2|g2f2e2 d2c2B2|A6-A4cd|
e4c2 a4g2|f4d2 b4a2|g4B2 B2d2f2|e6 e2c2d2|e4c2 a4g2|f4d2 b4a2|g2f2e2 d2c2B2|A6-A4|
